public/assets/images/icons/grey/visibility-visible/support.svg

<svg width="16" height="16" xmlns="http://www.w3.org/2000/svg" viewBox="0 0 16 16" shape-rendering="geometricPrecision" fill="#6e6e6e"><defs><mask id="a"><rect fill="#fff" width="100%" height="100%"/><path d="M12.997.858a4.809 4.809 0 0 0-4.253 2.563 4.81 4.81 0 0 0 8.506 0A4.812 4.812 0 0 0 12.997.858z" fill="#000"/></mask></defs><path d="M12.971 1.607c-1.315 0-2.454.74-3.029 1.825a3.425 3.425 0 0 0 6.058 0 3.43 3.43 0 0 0-3.029-1.825z" fill="#cb1800"/><path d="M13.1 6.144a2.124 2.124 0 1 0-4.248 0 2.124 2.124 0 0 0 4.248 0zm-6.147 5.18v2.661h8.045v-2.661a2.048 2.048 0 0 0-2.042-2.047H9.002a2.054 2.054 0 0 0-2.049 2.047zm.124-9.304h-4.97A1.07 1.07 0 0 0 1.04 3.087v2.771c0 .587.48 1.066 1.067 1.066h2.761c.052.07.864 1.12 2.327 1.347-.515-.46-.628-.963-.616-1.346h.498c.586 0 1.066-.479 1.066-1.066V3.087A1.07 1.07 0 0 0 7.077 2.02zM4.325 6.293h-.006c-.27 0-.457-.203-.457-.474 0-.28.192-.473.462-.473.281 0 .464.192.468.473a.451.451 0 0 1-.467.474zm.629-1.939c-.192.213-.27.416-.265.65v.093h-.691l-.006-.135c-.015-.265.072-.535.307-.811.167-.202.302-.369.302-.546 0-.182-.12-.302-.38-.312a.974.974 0 0 0-.514.156l-.177-.565c.192-.109.5-.214.868-.214.685 0 .997.379.997.812 0 .394-.243.654-.441.872z" mask="url(#a)"/></svg>

<?xml version="1.0"?><!DOCTYPE svg PUBLIC "-//W3C//DTD SVG 1.1//EN" "http://www.w3.org/Graphics/SVG/1.1/DTD/svg11.dtd"><svg width="16px" height="16px" xmlns="http://www.w3.org/2000/svg" viewBox="0 0 16 16" shape-rendering="geometricPrecision" fill="#6e6e6e"><defs><mask id="visibility-visible-path"><rect fill="#fff" width="100%" height="100%"/><path d="M12.997,0.858c-1.845,0-3.446,1.039-4.253,2.563c0.808,1.523,2.408,2.562,4.253,2.562 c1.844,0,3.444-1.039,4.253-2.562C16.441,1.897,14.841,0.858,12.997,0.858z" fill="#000"/></mask></defs><path display="inline" d="M12.971,1.607c-1.315,0-2.454,0.74-3.029,1.825 c0.575,1.085,1.715,1.825,3.029,1.825c1.314,0,2.453-0.74,3.029-1.825C15.424,2.348,14.284,1.607,12.971,1.607z" fill="#cb1800"/><g mask="url(#visibility-visible-path)"><g><g><path d="M13.1,6.144c0-1.174-0.952-2.124-2.124-2.124c-1.176,0-2.125,0.95-2.125,2.124c0,1.175,0.949,2.124,2.125,2.124 C12.148,8.268,13.1,7.318,13.1,6.144z M6.953,11.324v2.661h8.045v-2.661c0-1.126-0.915-2.047-2.042-2.047H9.002 C7.875,9.277,6.953,10.198,6.953,11.324z"/></g><path d="M7.077,2.02H2.107c-0.587,0-1.067,0.48-1.067,1.067v2.771c0,0.587,0.48,1.066,1.067,1.066h2.761 C4.92,6.994,5.732,8.044,7.195,8.271C6.68,7.811,6.567,7.308,6.579,6.925h0.498c0.586,0,1.066-0.479,1.066-1.066V3.087 C8.143,2.5,7.663,2.02,7.077,2.02z M4.325,6.293H4.319c-0.27,0-0.457-0.203-0.457-0.474c0-0.28,0.192-0.473,0.462-0.473 c0.281,0,0.464,0.192,0.468,0.473C4.793,6.09,4.605,6.293,4.325,6.293z M4.954,4.354c-0.192,0.213-0.27,0.416-0.265,0.65v0.093 H3.998L3.992,4.962C3.977,4.697,4.064,4.427,4.299,4.151c0.167-0.202,0.302-0.369,0.302-0.546c0-0.182-0.12-0.302-0.38-0.312 c-0.171,0-0.38,0.062-0.514,0.156L3.53,2.884c0.192-0.109,0.5-0.214,0.868-0.214c0.685,0,0.997,0.379,0.997,0.812 C5.395,3.876,5.152,4.136,4.954,4.354z"/></g></g></svg>
